src/assets/settings.svg

<svg width="16" height="16" viewBox="0 0 16 16" fill="none" xmlns="http://www.w3.org/2000/svg">
<g clip-path="url(#clip0_1_285)">
<path d="M10.0003 16H6.00028V13.658C5.30511 13.412 4.66124 13.04 4.10094 12.5607L2.07161 13.7333L0.0716095 10.2667L2.10028 9.09667C1.96702 8.37163 1.96702 7.62837 2.10028 6.90333L0.0716095 5.73333L2.07161 2.26667L4.10094 3.43933C4.66124 2.95995 5.30511 2.58796 6.00028 2.342V0H10.0003V2.342C10.6954 2.58796 11.3393 2.95995 11.8996 3.43933L13.9289 2.26667L15.9289 5.73333L13.9003 6.90333C14.0335 7.62837 14.0335 8.37163 13.9003 9.09667L15.9289 10.2667L13.9289 13.7333L11.8996 12.5613C11.3393 13.0405 10.6954 13.4122 10.0003 13.658V16ZM7.33361 14.6667H8.66694V12.6487L9.16761 12.5193C9.98895 12.3066 10.7365 11.8734 11.3296 11.2667L11.6916 10.898L13.4403 11.908L14.1069 10.7533L12.3603 9.74467L12.4976 9.24733C12.7234 8.42929 12.7234 7.56538 12.4976 6.74733L12.3603 6.25L14.1069 5.24133L13.4403 4.08667L11.6916 5.09933L11.3296 4.73333C10.7362 4.12756 9.98866 3.69535 9.16761 3.48333L8.66694 3.35133V1.33333H7.33361V3.35133L6.83294 3.48067C6.0116 3.69343 5.26401 4.12659 4.67094 4.73333L4.30894 5.102L2.56028 4.08933L1.89361 5.244L3.64028 6.25267L3.50294 6.75C3.27718 7.56804 3.27718 8.43196 3.50294 9.25L3.64028 9.74733L1.89361 10.756L2.56028 11.9107L4.30894 10.9007L4.67094 11.2693C5.26433 11.8751 6.01189 12.3073 6.83294 12.5193L7.33361 12.6487V14.6667ZM8.00028 10.6667C7.47286 10.6667 6.95729 10.5103 6.51876 10.2173C6.08022 9.92424 5.73843 9.50776 5.5366 9.02049C5.33476 8.53322 5.28195 7.99704 5.38485 7.47976C5.48774 6.96248 5.74172 6.48732 6.11466 6.11438C6.4876 5.74144 6.96275 5.48747 7.48004 5.38457C7.99732 5.28168 8.5335 5.33449 9.02077 5.53632C9.50804 5.73815 9.92451 6.07995 10.2175 6.51848C10.5105 6.95701 10.6669 7.47258 10.6669 8C10.6669 8.70724 10.386 9.38552 9.88589 9.88562C9.3858 10.3857 8.70752 10.6667 8.00028 10.6667ZM8.00028 6.66667C7.73657 6.66667 7.47878 6.74487 7.25952 6.89137C7.04025 7.03788 6.86935 7.24612 6.76844 7.48976C6.66752 7.73339 6.64112 8.00148 6.69256 8.26012C6.74401 8.51876 6.871 8.75634 7.05747 8.94281C7.24394 9.12928 7.48151 9.25627 7.74016 9.30771C7.9988 9.35916 8.26689 9.33276 8.51052 9.23184C8.75416 9.13092 8.96239 8.96003 9.1089 8.74076C9.25541 8.52149 9.33361 8.26371 9.33361 8C9.33361 7.64638 9.19313 7.30724 8.94308 7.05719C8.69304 6.80714 8.3539 6.66667 8.00028 6.66667Z" fill="#7F858D"/>
</g>
<defs>
<clipPath id="clip0_1_285">
<rect width="16" height="16" fill="white"/>
</clipPath>
</defs>
</svg>

<svg width="16" height="16" fill="none" xmlns="http://www.w3.org/2000/svg">
  <g clip-path="url(#prefix__clip0_1_285)">
    <path
      d="M10 16H6v-2.342a6.002 6.002 0 01-1.9-1.097l-2.028 1.172-2-3.466L2.1 9.097a6.067 6.067 0 010-2.194L.072 5.733l2-3.466L4.1 3.439A6 6 0 016 2.342V0h4v2.342A6 6 0 0111.9 3.439l2.029-1.172 2 3.466-2.029 1.17a6.07 6.07 0 010 2.194l2.029 1.17-2 3.466-2.03-1.172A6 6 0 0110 13.658V16zm-2.666-1.333h1.333v-2.018l.5-.13a4.656 4.656 0 002.163-1.252l.362-.369 1.748 1.01.667-1.155-1.747-1.008.138-.498a4.698 4.698 0 000-2.5l-.138-.497 1.747-1.009-.667-1.154-1.748 1.012-.362-.366a4.656 4.656 0 00-2.162-1.25l-.501-.132V1.333H7.334v2.018l-.501.13A4.656 4.656 0 004.67 4.733l-.362.369L2.56 4.089l-.666 1.155L3.64 6.253l-.137.497a4.699 4.699 0 000 2.5l.137.497-1.746 1.009.666 1.155L4.31 10.9l.362.368a4.656 4.656 0 002.162 1.25l.5.13v2.018zm.666-4a2.667 2.667 0 110-5.334 2.667 2.667 0 010 5.334zm0-4a1.333 1.333 0 100 2.666 1.333 1.333 0 000-2.666z"
      fill="currentColor" />
  </g>
</svg>
